Catalina-dark/actions/16/run-build-clean.svg

<?xml version="1.0" encoding="UTF-8" standalone="no"?>
<svg
   xmlns:dc="http://purl.org/dc/elements/1.1/"
   xmlns:cc="http://creativecommons.org/ns#"
   xmlns:rdf="http://www.w3.org/1999/02/22-rdf-syntax-ns#"
   xmlns:svg="http://www.w3.org/2000/svg"
   xmlns="http://www.w3.org/2000/svg"
   xmlns:sodipodi="http://sodipodi.sourceforge.net/DTD/sodipodi-0.dtd"
   xmlns:inkscape="http://www.inkscape.org/namespaces/inkscape"
   width="16"
   height="16"
   viewBox="0 0 16 16"
   version="1.1"
   id="svg7"
   sodipodi:docname="run-build-clean.svg"
   inkscape:version="0.92.4 5da689c313, 2019-01-14">
  <metadata
     id="metadata11">
    <rdf:RDF>
      <cc:Work
         rdf:about="">
        <dc:format>image/svg+xml</dc:format>
        <dc:type
           rdf:resource="http://purl.org/dc/dcmitype/StillImage" />
      </cc:Work>
    </rdf:RDF>
  </metadata>
  <sodipodi:namedview
     pagecolor="#ffffff"
     bordercolor="#666666"
     borderopacity="1"
     objecttolerance="10"
     gridtolerance="10"
     guidetolerance="10"
     inkscape:pageopacity="0"
     inkscape:pageshadow="2"
     inkscape:window-width="640"
     inkscape:window-height="480"
     id="namedview9"
     showgrid="false"
     inkscape:zoom="14.75"
     inkscape:cx="6.8135593"
     inkscape:cy="8"
     inkscape:window-x="0"
     inkscape:window-y="26"
     inkscape:window-maximized="0"
     inkscape:current-layer="svg7" />
  <defs
     id="defs3">
    <style
       id="current-color-scheme"
       type="text/css">
   .ColorScheme-Text { color:#5c616c; } .ColorScheme-Highlight { color:#5294e2; }
  </style>
  </defs>
  <path
     style="fill:#f1f6f8;fill-opacity:0.8509804"
     class="ColorScheme-Text"
     d="M 7 1 L 7 2.0859375 C 6.1094 2.2386375 5.2648969 2.5905344 4.5292969 3.1152344 L 3.7578125 2.34375 L 2.34375 3.7578125 L 3.1132812 4.5273438 C 2.5902812 5.2640437 2.2405438 6.1092 2.0898438 7 L 1 7 L 1 9 L 2.0859375 9 C 2.2386375 9.8906 2.5905344 10.734703 3.1152344 11.470703 L 2.34375 12.242188 L 3.7578125 13.65625 L 4.5273438 12.886719 C 5.2640437 13.409719 6.1092 13.760156 7 13.910156 L 7 15 L 9 15 L 9 13.914062 C 9.8906 13.761062 10.734703 13.409766 11.470703 12.884766 L 12.242188 13.65625 L 13.65625 12.242188 L 12.886719 11.472656 C 13.409719 10.735656 13.760156 9.8908 13.910156 9 L 15 9 L 15 7 L 13.914062 7 C 13.761062 6.1094 13.409766 5.2648969 12.884766 4.5292969 L 13.65625 3.7578125 L 12.242188 2.34375 L 11.472656 3.1132812 C 10.735656 2.5902812 9.8908 2.2405438 9 2.0898438 L 9 1 L 7 1 z M 7 6 L 11 6 L 11 10 L 7 10 L 5 8 L 7 6 z"
     id="path5" />
</svg>

<svg width="16" height="16" version="1.1" viewBox="0 0 16 16" xmlns="http://www.w3.org/2000/svg">
<defs>
<style id="current-color-scheme" type="text/css">.ColorScheme-Text { color:#5c616c; } .ColorScheme-Highlight { color:#5294e2; }</style>
</defs>
<path class="ColorScheme-Text" d="m7 1v1.0859c-0.8906 0.1527-1.7351 0.5046-2.4707 1.0293l-0.77148-0.77148-1.4141 1.4141 0.76953 0.76953c-0.523 0.7367-0.87274 1.5819-1.0234 2.4727h-1.0898v2h1.0859c0.1527 0.8906 0.5046 1.7347 1.0293 2.4707l-0.77148 0.77148 1.4141 1.4141 0.76953-0.76953c0.7367 0.523 1.5819 0.87344 2.4727 1.0234v1.0898h2v-1.0859c0.8906-0.153 1.7347-0.5043 2.4707-1.0293l0.77148 0.77148 1.4141-1.4141-0.76953-0.76953c0.523-0.737 0.87344-1.5819 1.0234-2.4727h1.0898v-2h-1.0859c-0.153-0.8906-0.5043-1.7351-1.0293-2.4707l0.77148-0.77148-1.4141-1.4141-0.76953 0.76953c-0.737-0.523-1.5819-0.87274-2.4727-1.0234v-1.0898h-2zm0 5h4v4h-4l-2-2 2-2z" fill="#f1f6f8" fill-opacity=".85098"/>
</svg>
